X: 3
T: The New Shilling
R: reel
M: 4/4
L: 1/8
K: Bmin
|:Bcde f2ea|cAeA aAec|Bcde faea|cAec B/B/Bf2:|
B/B/B b^a bff^g|abaf defd|efab faea|cAec B/B/Bf2|
B/B/B b^a bBbf|abaf defd|efab faea|cAec B/B/B f2||